X:141
T:Toss the Feathers
M:4/4
L:1/8
R:reel
D:The Corrs: Forgiven Not Forgotten
D:Solas: Solas
N:Learned from The Corrs: Forgiven Not Forgotten
K:Dmix
|:D2ED ADED|ABcA GECE|D2ED ADED|AddB cAGE|
D2ED ADED|ABcA GEE2|cABG A4|{B^c}d2ed =cAGE:|
|:Add2 Add2|Add2 ed^cd|eaag a3g|eaag aged|
efge afge|f2ed dcAB|cABG A4|{B^c}d2ed =cAGE:|
